X:529
T:Cuileann U\'i Chaoimh
O:ireland
R:jig
Z:id:hn-jig-267
M:6/8
K:Bm
~B3 BAF|ABd dAF|BcB BAF|AFE EFA|
~B3 BAF|ABd dAF|GBG ~F3|EFE D3:|
DFA d2e|f2d ecA|gfe fdB|AFA BcB|
Adf afa|baf a2f|gfe fdB|AFA B2g|
fdc d2e|f2d ecA|gfe fdB|AFA BcB|
Adf afa|baf a2f|gfe fdB|AFA B3||
